packages/core/src/svgs/cgt.svg

<svg width="24" height="24" viewBox="0 0 24 24" fill="none" xmlns="http://www.w3.org/2000/svg">
<g clip-path="url(#clip0_31_8175)">
<path d="M0 0H24V24H0V0Z" fill="#F7B600"/>
<path d="M12.4285 18.9821V14.9261C12.0047 14.9169 11.5883 14.8126 11.2102 14.6209C10.832 14.4292 10.5018 14.155 10.2439 13.8186C9.98598 13.4821 9.80695 13.092 9.72004 12.677C9.63313 12.2621 9.64057 11.8329 9.74179 11.4213C9.88051 10.8314 10.2074 10.3027 10.673 9.91497C11.1387 9.52724 11.7179 9.30155 12.3231 9.27197C12.7 9.24962 13.0775 9.30291 13.4335 9.42872C13.7895 9.55452 14.1167 9.75029 14.3959 10.0045C14.675 10.2587 14.9005 10.5662 15.059 10.9089C15.2175 11.2516 15.3058 11.6225 15.3188 11.9998H19.4416C19.4416 10.6314 18.9732 9.35554 18.2129 8.21811C17.4944 7.14306 16.489 6.29085 15.3108 5.75811C14.1325 5.22538 12.8286 5.03344 11.5469 5.20406C10.2651 5.37469 9.05677 5.90104 8.05893 6.72344C7.06109 7.54584 6.31365 8.63139 5.90136 9.85697H4.28564V14.1465H5.8615C6.33554 15.6473 7.30695 16.9416 8.6155 17.816C9.75336 18.5763 11.0601 18.9821 12.4285 18.9821Z" fill="white"/>
<path d="M17.9999 18.5132C17.5639 18.7647 17.0637 18.8827 16.5612 18.8526C16.0588 18.8225 15.5762 18.6456 15.1733 18.3438C14.7705 18.0421 14.465 17.6287 14.2949 17.155C14.1248 16.6812 14.0974 16.168 14.2162 15.6789C14.335 15.1897 14.5948 14.7462 14.9633 14.4033C15.3317 14.0604 15.7928 13.8332 16.2892 13.7499C16.7856 13.6665 17.2955 13.7307 17.7558 13.9344C18.2161 14.1382 18.6064 14.4725 18.8785 14.896L17.7586 15.5359C17.6033 15.3196 17.3847 15.1569 17.133 15.0702C16.8813 14.9834 16.6088 14.977 16.3533 15.0518C16.0977 15.1265 15.8717 15.2788 15.7064 15.4875C15.5411 15.6962 15.4446 15.9511 15.4304 16.217C15.4161 16.4828 15.4848 16.7466 15.6268 16.9717C15.7689 17.1969 15.9774 17.3725 16.2234 17.4741C16.4695 17.5758 16.7411 17.5985 17.0007 17.5392C17.2602 17.4799 17.495 17.3414 17.6725 17.143H17.1428V16.2859H19.2856V18.8573H17.9999V18.5132Z" fill="white"/>
</g>
<defs>
<clipPath id="clip0_31_8175">
<rect width="24" height="24" fill="white"/>
</clipPath>
</defs>
</svg>

<svg xmlns="http://www.w3.org/2000/svg" width="24" height="24" fill="none" viewBox="0 0 24 24"><g clip-path="url(#a)"><path fill="#F7B600" d="M0 0h24v24H0z"/><path fill="#fff" d="M12.429 18.982v-4.056a2.83 2.83 0 0 1-2.687-3.505 2.79 2.79 0 0 1 2.581-2.149A2.83 2.83 0 0 1 15.32 12h4.123c0-1.369-.469-2.644-1.23-3.782a6.92 6.92 0 0 0-12.31 1.639H4.285v4.29h1.576a6.92 6.92 0 0 0 2.754 3.669 6.8 6.8 0 0 0 3.813 1.166"/><path fill="#fff" d="M18 18.513a2.571 2.571 0 1 1 .878-3.617l-1.12.64a1.286 1.286 0 1 0-.085 1.607h-.53v-.857h2.143v2.571H18z"/></g><defs><clipPath id="a"><path fill="#fff" d="M0 0h24v24H0z"/></clipPath></defs></svg>
